dist/assets/images/icons/tabs_reviews.svg

<svg width="52" height="68" viewBox="0 0 52 68" fill="none" xmlns="http://www.w3.org/2000/svg">
<path d="M7.06787 40.8203C7.06787 45.9174 7.06787 50.3672 7.06787 50.3672V63.3122V66.2248" stroke="#79655E" stroke-width="2" stroke-miterlimit="10" stroke-linecap="round" stroke-linejoin="round"/>
<path d="M7.06796 50.0437C7.06796 51.8236 5.69256 53.2799 3.91262 53.2799C2.13269 53.2799 1 51.8236 1 50.0437V41.4676C1 36.2896 5.20712 32.0825 10.3851 32.0825H16.6149" stroke="#79655E" stroke-width="2" stroke-miterlimit="10" stroke-linecap="round" stroke-linejoin="round"/>
<path d="M13.9448 66.2246V53.1987" stroke="#79655E" stroke-width="2" stroke-miterlimit="10" stroke-linecap="round" stroke-linejoin="round"/>
<path d="M39.9157 14.2026C42.8283 15.0117 45.0128 17.6816 45.0128 20.9178C45.0128 24.7204 41.9384 27.8758 38.0549 27.8758C36.194 27.8758 34.5759 27.1476 33.3623 26.0149" stroke="#79655E" stroke-width="2" stroke-miterlimit="10" stroke-linecap="round" stroke-linejoin="round"/>
<path d="M44.9322 50.0437C44.9322 51.8236 46.3076 53.2799 48.0875 53.2799C49.8675 53.2799 51.0001 51.8236 51.0001 50.0437V41.4676C51.0001 36.2896 46.793 32.0825 41.615 32.0825H35.3853" stroke="#79655E" stroke-width="2" stroke-miterlimit="10" stroke-linecap="round" stroke-linejoin="round"/>
<path d="M44.9322 40.8203C44.9322 45.9174 44.9322 48.5064 44.9322 48.5064V50.61C44.9322 56.0307 50.1102 66.1439 50.1102 66.1439H35.1426" stroke="#79655E" stroke-width="2" stroke-miterlimit="10" stroke-linecap="round" stroke-linejoin="round"/>
<path d="M26.4855 40.5774C23.5728 40.5774 21.2266 38.2311 21.2266 35.3185C21.2266 32.4058 23.5728 30.0596 26.4855 30.0596C29.3981 30.0596 31.7444 32.4058 31.7444 35.3185C31.6635 38.2311 29.3172 40.5774 26.4855 40.5774Z" stroke="#79655E" stroke-width="2" stroke-miterlimit="10" stroke-linecap="round" stroke-linejoin="round"/>
<path d="M30.8545 66.2247V64.3638V56.1114V50.0435" stroke="#79655E" stroke-width="2" stroke-miterlimit="10" stroke-linecap="round" stroke-linejoin="round"/>
<path d="M22.0356 50.0435C22.0356 53.3606 22.0356 56.1114 22.0356 56.1114V64.3638V66.2247" stroke="#79655E" stroke-width="2" stroke-miterlimit="10" stroke-linecap="round" stroke-linejoin="round"/>
<path d="M22.0358 55.8692C22.0358 57.0019 21.1459 57.8918 20.0132 57.8918C18.8805 57.8918 18.1523 57.0019 18.1523 55.8692V50.4485C18.1523 47.1313 20.8222 44.4614 24.1394 44.4614H28.6701C31.9873 44.4614 34.6572 47.1313 34.6572 50.4485V55.8692C34.6572 57.0019 33.929 57.8918 32.7964 57.8918C31.6637 57.8918 30.7737 57.0019 30.7737 55.8692" stroke="#79655E" stroke-width="2" stroke-miterlimit="10" stroke-linecap="round" stroke-linejoin="round"/>
<path d="M26.4854 66.2249V57.8916" stroke="#79655E" stroke-width="2" stroke-miterlimit="10" stroke-linecap="round" stroke-linejoin="round"/>
<path d="M21.8735 12.9888L25.1907 16.3869L30.6923 10.8853" stroke="#79655E" stroke-width="2" stroke-miterlimit="10" stroke-linecap="round" stroke-linejoin="round"/>
<path d="M25.9996 1.5C25.9996 1.5 20.8216 5.54531 16.4526 5.54531V15.7395C16.4526 17.843 17.3426 19.7848 18.7989 20.8366C20.3361 21.9693 24.8669 24.9628 25.0287 25.0437L25.9996 25.6909L26.9704 25.0437C27.1322 24.8819 31.663 21.9693 33.2002 20.8366C34.6565 19.7848 35.5465 17.843 35.5465 15.7395V5.54531C31.1776 5.54531 25.9996 1.5 25.9996 1.5Z" stroke="#79655E" stroke-width="2" stroke-miterlimit="10" stroke-linecap="round" stroke-linejoin="round"/>
<path d="M12.0844 14.2026C9.17177 15.0117 6.9873 17.6816 6.9873 20.9178C6.9873 24.7204 10.0617 27.8758 13.9452 27.8758C15.8061 27.8758 17.4242 27.1476 18.7187 26.0149" stroke="#79655E" stroke-width="2" stroke-miterlimit="10" stroke-linecap="round" stroke-linejoin="round"/>
</svg>

<svg width="52" height="68" fill="none" xmlns="http://www.w3.org/2000/svg"><path d="M7.068 40.82v25.405m0-16.181c0 1.78-1.375 3.236-3.155 3.236C2.133 53.28 1 51.824 1 50.044v-8.576c0-5.178 4.207-9.386 9.385-9.386h6.23m-2.67 34.143V53.199m25.971-38.996a6.964 6.964 0 015.097 6.715c0 3.802-3.075 6.958-6.958 6.958a6.815 6.815 0 01-4.693-1.861m11.57 24.029c0 1.78 1.376 3.236 3.155 3.236 1.78 0 2.913-1.456 2.913-3.236v-8.576c0-5.178-4.207-9.386-9.385-9.386h-6.23" stroke="#79655E" stroke-width="2" stroke-miterlimit="10" stroke-linecap="round" stroke-linejoin="round"/><path d="M44.932 40.82v9.79c0 5.42 5.178 15.534 5.178 15.534H35.143m-8.658-25.567a5.248 5.248 0 01-5.258-5.258 5.248 5.248 0 015.258-5.26 5.248 5.248 0 015.26 5.26c-.082 2.912-2.428 5.258-5.26 5.258zm4.37 25.648V50.044m-8.819 0v16.18m0-10.354c0 1.132-.89 2.022-2.023 2.022s-1.86-.89-1.86-2.023v-5.42a5.974 5.974 0 015.986-5.988h4.531a5.974 5.974 0 015.987 5.988v5.42c0 1.133-.728 2.023-1.86 2.023a2.003 2.003 0 01-2.023-2.023m-4.289 10.356v-8.333m-4.612-44.903l3.318 3.398 5.501-5.502" stroke="#79655E" stroke-width="2" stroke-miterlimit="10" stroke-linecap="round" stroke-linejoin="round"/><path d="M26 1.5s-5.178 4.045-9.547 4.045V15.74c0 2.104.89 4.046 2.346 5.098 1.537 1.132 6.068 4.126 6.23 4.207l.97.647.971-.647c.162-.162 4.693-3.075 6.23-4.207 1.456-1.052 2.346-2.994 2.346-5.098V5.545C31.178 5.545 26 1.5 26 1.5zM12.084 14.203a6.964 6.964 0 00-5.097 6.715c0 3.802 3.075 6.958 6.958 6.958 1.861 0 3.48-.728 4.774-1.861" stroke="#79655E" stroke-width="2" stroke-miterlimit="10" stroke-linecap="round" stroke-linejoin="round"/></svg>
